!!!SOCIAL_FUNCTION:	songs connected with legends
!!!PDT:	1929
!!!OTL: No_26_Song_to_Put_the_Eagle_to_Sleep.krn
!!!REG: Southwest
!!!LANG: Non-Tone
!!!LING_GROUP: Uto-Aztecan
**kern
*staff1
=
*clefF4
*k[f#c#g#]
*M3/4
8A\L
8A\J
=1
2A\
8B\L
8A\J
=2
(4.G#\
8F#\)
8G#\L
8G#\J
=3
2F#\
8F#\L
8F#\J
=4
4C#/
4r
8A\L
8A\J
=5
2A\
8B\L
8A\J
=6
(4.G#\
8F#\)
8G#\L
8G#\J
=7
2F#\
8F#\L
8F#\J
=8||
*M2/4
4C#/
4r
=9||
*M3/4
2F#\
8G#\L
8F#\J
=10
2F#\
8F#\L
8F#\J
=11||
*M2/4
2C#/
=12||
*M3/4
2F#\
8G#\L
8F#\J
=13
2F#\
8F#\L
8F#\J
=14
*M2/4
2C#/
==:|!
*-
